X:120
T:Reels simple chords 349
M:3/4
L:1/8
K:F
C2 [F2F,2A,2C2] EF | G2 FG [A2F,2A,2C2] | GA B2 AB | [c2F,2A,2C2] c2 cd | cA [B2G,2B,2D2] G2 |
GB AG [F2F,2A,2C2] | EF G2 FG | [A2F,2A,2C2] GA B2 | AB [c2F,2A,2C2] c2 |
cd cB [A2F,2A,2C2] | F2 FC DE | [F2F,2A,2C2] EF G2 | FG [A2F,2A,2C2] GA |
B2 AB [c2F,2A,2C2] | c2 cd cA | [B2G,2B,2D2] G2 GB | AG [F2F,2A,2C2] EF |
G2 FG [A2F,2A,2C2] | GA B2 AB | [c2F,2A,2C2] c2 cd | cB [A2F,2A,2C2] F2 |
FA B=B [c2F,2A,2C2] | =Bc d2 c2 | [A2F,2A,2C2] ^GA B2 | A2 [G2C,2E,2G,2] ^FG |
A2 G2 [E2G,2=B,2D2F2] | _E=E D2 C2 | [c2F,2A,2C2] =Bc d2 | c2 [A2A,2^C2E2G2] ^GA |
B2 A2 [G2G,2=B,2D2F2] | ^FG cB AG | [A2F,2A,2C2] F2 FA | B=B [c2F,2A,2C2] Bc |
dc =Bc [A2F,2A,2C2] | ^GA BA GA | [G2C,2E,2G,2] ^FG AG | ^FG [E2G,2=B,2D2=F2] _E=E |
DE DC [c2F,2A,2C2] | =Bc dc Bc | [A2A,2^C2E2G2] ^GA BA | ^GA [=G2G,2=B,2D2F2] ^FG |
cB AG [A2F,2A,2C2] | F2 F2 |


